!!!COM: Haydn, Franz Joseph
!!!OTL: String Quartet in C Major
!!!OPS: Opus 76
!!!ONM: No. 3
!!!OMD: Poco adagio, cantabile
!!!OMV: 2
!!!SCT: H III:77
!!!SCA: Thematisch-bibliographisches Werkevererzeichnis (A. van Hoboken)
!!!YOR: Trautwein Edition
!!!ENC: Frances Bennion
!!!CDT: 1732/3/31/-1809/5/31/
!!!CNT: Oesterreich
!!!YEC: Copyright (c) 1994, 2000 Center for Computer Assisted Research in the Humanities
!!!YEM: Rights to all derivative editions reserved.
!!!YEM: Refer to licensing agreement for further details.
!!!YEN: United States of America
**kern	**kern	**kern	**kern
*k[f#]	*k[f#]	*k[f#]	*k[f#]
*G:	*G:	*G:	*G:
*clefF4	*clefC3	*clefF	*clefF
*M4/4	*M4/4	*M4/4	*M4/4
2r	2r	2r	2r
4G	4G	4.B	4.g
4r	4r	.	.
.	.	8d	8a
=1	=1	=1	=1
2r	2r	4g	4b
.	.	4f#	4a
4F#	4d	4a	4cc
4G	4d	4g	4b
=2	=2	=2	=2
4D	8F#	4c	8a
.	8A	.	8f#
4GG	4G	4B	4g
2r	2r	4cc	4ee
.	.	4b	4dd
=3	=3	=3	=3
4D	4A	4f#	4cc
4G	4B	4g	4b
4C	4e	2e	4a
4C#	4G	.	8b
.	.	.	8g
=4	=4	=4	=4
2D	2F#	2d	2dd
4G	4G	4.B	4.g
4r	4r	.	.
.	.	8d	8a
=5	=5	=5	=5
2r	2r	4g	4b
.	.	4f#	4a
4F#	4d	4a	4cc
4G	4d	4g	4b
=6	=6	=6	=6
4D	8F#	4c	8a
.	8A	.	8f#
4GG	4G	4B	4g
2r	2r	4cc	4ee
.	.	4b	4dd
=7	=7	=7	=7
4D	4A	4f#	4cc
4G	4B	4g	4b
4C	4e	2e	4a
4C#	4G	.	8b
.	.	.	8g
=8	=8	=8	=8
2D	2F#	2d	2dd
4D	4d	4f#	4a
4D	4d	4g	4b
=9	=9	=9	=9
4D	4d	4f#	8a
.	.	.	8f#
4r	4r	4r	4d
4D	4A	4f#	4cc
4D	8G	4g	4b
.	8B	.	.
=10	=10	=10	=10
4D	4d	4f#	8a
.	.	.	8f#
4r	4r	4r	4d
4BB	4d	4b	4dd
8C	8e	4a	4cc
8D	8f#	.	.
=11	=11	=11	=11
2E	4g	2.g	4.b
.	4G	.	.
.	.	.	8b
4AA	4e	.	4cc#
4AA	8e	8g	8cc#
.	8d	8f#	8dd
=12	=12	=12	=12
2D	2d	2f#	2dd
4.B	2d 2G	4.g 4.G	4.gg
8B	.	8g	8ff#
=13	=13	=13	=13
4c	8.e	8.g	4ee
.	16f#	16a	.
4G	4g	4b	4dd
4.C	4.g	4.cc	4.ee
8G	8g	8b	8dd
=14	=14	=14	=14
4D	4d 4a	4f#	4cc
4G	4b 4d	4g	4b
2C	2d	4.f#	4.a
.	.	16g	16b
.	.	16a	16cc
=15	=15	=15	=15
4BB	4G	4g	8dd
.	.	.	8ee
4C	8e	8e	8cc
.	8c	8a	8a
4D	4B	4g	4g
4D	4c	4f#	8a
.	.	.	8g
=16	=16	=16	=16
2GG	2B	2g	2g
4.B	2G 2d	4.G 4.g	4.gg
8B	.	8g	8ff#
=17	=17	=17	=17
4c	8.e	8.g	4ee
.	16f#	16a	.
4G	4g	4b	4dd
4.C	4.g	4.cc	4.ee
8G	8g	8b	8dd
=18	=18	=18	=18
4D	4a 4d	4f#	4cc
4G	4b 4d	4g	4b
2C	2d	4.f#	4.a
.	.	16g	16b
.	.	16a	16cc
=19	=19	=19	=19
4BB	4G	4g	8dd
.	.	.	8ee
4C	8e	8e	8cc
.	8c	8a	8a
4D	4B	4g	4g
4D	4c	4f#	8a
.	.	.	8g
=20	=20	=20	=20
2GG	2B	2g	2g
2r	2r	4.g	16B
.	.	.	16d
.	.	.	16g
.	.	.	16b
.	.	.	16dd
.	.	.	16gg
.	.	8a	16ff#
.	.	.	16ee
=21	=21	=21	=21
1r	1r	4b	16dd
.	.	.	16gg
.	.	.	16bb
.	.	.	16gg
.	.	4a	16ff#
.	.	.	16d
.	.	.	16ff#
.	.	.	16gg
.	.	4cc	16gg#
.	.	.	16aa
.	.	.	16ccc
.	.	.	16ff#
.	.	4b	16aa
.	.	.	16gg
.	.	.	16bb
.	.	.	16dd
=22	=22	=22	=22
1r	1r	8a	16dd
.	.	.	16cc
.	.	8f#	16ee
.	.	.	16cc
.	.	4g	16a#
.	.	.	16b
.	.	.	16f#
.	.	.	16g
.	.	4ee	16r
.	.	.	16gg
.	.	.	16ddd
.	.	.	16ccc
.	.	4dd	16ff#
.	.	.	16ccc
.	.	.	16aa#
.	.	.	16bb
=23	=23	=23	=23
1r	1r	4cc	16r
.	.	.	16ee
.	.	.	16bb
.	.	.	16aa
.	.	4b	16dd
.	.	.	16aa
.	.	.	16ff#
.	.	.	16gg
.	.	4a	16r
.	.	.	16cc
.	.	.	16gg
.	.	.	16ff#
.	.	8b	16aa
.	.	.	16gg
.	.	8g	16bb
.	.	.	16gg
=24	=24	=24	=24
1r	1r	2dd	16ff#
.	.	.	16aa
.	.	.	16ccc#
.	.	.	16ddd
.	.	.	16d
.	.	.	16e
.	.	.	16c
.	.	.	16d
.	.	4.g	16B
.	.	.	16d
.	.	.	16g
.	.	.	16b
.	.	.	16dd
.	.	.	16gg
.	.	8a	16ff#
.	.	.	16ee
=25	=25	=25	=25
1r	1r	4b	16dd
.	.	.	16gg
.	.	.	16bb
.	.	.	16gg
.	.	4a	16ff#
.	.	.	16d
.	.	.	16ff#
.	.	.	16gg
.	.	4cc	16gg#
.	.	.	16aa
.	.	.	16ccc
.	.	.	16ff#
.	.	4b	16aa
.	.	.	16gg
.	.	.	16bb
.	.	.	16dd
=26	=26	=26	=26
1r	1r	8a	16dd
.	.	.	16cc
.	.	8f#	16ee
.	.	.	16cc
.	.	4g	16a#
.	.	.	16b
.	.	.	16f#
.	.	.	16g
.	.	4ee	16r
.	.	.	16gg
.	.	.	16ddd
.	.	.	16ccc
.	.	4dd	16ff#
.	.	.	16ccc
.	.	.	16aa#
.	.	.	16bb
=27	=27	=27	=27
1r	1r	4cc	16r
.	.	.	16ee
.	.	.	16bb
.	.	.	16aa
.	.	4b	16dd
.	.	.	16aa
.	.	.	16ff#
.	.	.	16gg
.	.	4a	16r
.	.	.	16cc
.	.	.	16gg
.	.	.	16ff#
.	.	8b	16aa
.	.	.	16gg
.	.	8g	16bb
.	.	.	16gg
=28	=28	=28	=28
1r	1r	2dd	16ff#
.	.	.	16aa
.	.	.	16ccc#
.	.	.	16ddd
.	.	.	4dd
.	.	4a	16d
.	.	.	16f#
.	.	.	16dd
.	.	.	16f#
.	.	4b	16d
.	.	.	16g
.	.	.	16dd
.	.	.	16g
=29	=29	=29	=29
1r	1r	8a	16d
.	.	.	16f#
.	.	8f#	16a
.	.	.	16cc#
.	.	4d	16dd
.	.	.	16ff#
.	.	.	16aa
.	.	.	16ddd
.	.	4cc	16aa
.	.	.	16ff#
.	.	.	16dd
.	.	.	16ff#
.	.	4b	16gg
.	.	.	16dd
.	.	.	16b
.	.	.	16g
=30	=30	=30	=30
1r	1r	8a	16d
.	.	.	16f#
.	.	8f#	16a
.	.	.	16cc#
.	.	4d	16dd
.	.	.	16ff#
.	.	.	16aa
.	.	.	16ddd
.	.	4dd	16b
.	.	.	16dd
.	.	.	16gg
.	.	.	16bb
.	.	4cc	16d
.	.	.	16aa
.	.	.	16ff#
.	.	.	16d
=31	=31	=31	=31
1r	1r	4.b	16e
.	.	.	16g
.	.	.	16b
.	.	.	16ee
.	.	.	16gg
.	.	.	16bb
.	.	8b	16gg
.	.	.	16ee
.	.	4cc#	16A
.	.	.	16c#
.	.	.	16e
.	.	.	16g
.	.	8cc#	16cc#
.	.	.	16ee
.	.	8dd	16gg
.	.	.	16g
=32	=32	=32	=32
1r	1r	2dd	16f#
.	.	.	16dd
.	.	.	16a
.	.	.	16f#
.	.	.	16d
.	.	.	16e
.	.	.	16c
.	.	.	16d
.	.	4.gg	16B
.	.	.	16d
.	.	.	16g
.	.	.	16b
.	.	.	16dd
.	.	.	16gg
.	.	8ff#	16B
.	.	.	16g
=33	=33	=33	=33
1r	1r	4ee	16c
.	.	.	16g
.	.	.	16ee
.	.	.	16g
.	.	4dd	16B
.	.	.	16g
.	.	.	16dd
.	.	.	16g
.	.	4.ee	16c
.	.	.	16e
.	.	.	16g
.	.	.	16cc
.	.	.	16ee
.	.	.	16gg
.	.	8dd	16B
.	.	.	16g
=34	=34	=34	=34
1r	1r	4cc	16A
.	.	.	16c
.	.	.	16d
.	.	.	16f#
.	.	4b	16g
.	.	.	16b
.	.	.	16dd
.	.	.	16gg
.	.	4.a	16c
.	.	.	16d
.	.	.	16f#
.	.	.	16a
.	.	.	16cc
.	.	.	16ff#
.	.	16b	16gg
.	.	16cc	16aa
=35	=35	=35	=35
1r	1r	8dd	16b
.	.	.	16gg
.	.	8ee	16cc
.	.	.	16gg
.	.	8cc	16e
.	.	.	16gg
.	.	8a	16c#
.	.	.	16ee
.	.	4g	16d
.	.	.	16g
.	.	.	16b
.	.	.	16dd
.	.	8a	16d
.	.	.	16cc
.	.	8g	16ff#
.	.	.	16cc
=36	=36	=36	=36
1r	1r	4g	16b
.	.	.	16gg
.	.	.	16dd
.	.	.	16b
.	.	4r	16g
.	.	.	16d
.	.	.	16B
.	.	.	16d
.	.	4.gg	24G
.	.	.	24B
.	.	.	24d
.	.	.	24g
.	.	.	24b
.	.	.	24dd
.	.	.	16gg
.	.	.	16b
.	.	8ff#	16B
.	.	.	16g
=37	=37	=37	=37
1r	1r	4ee	16c
.	.	.	16g
.	.	.	16ee
.	.	.	16g
.	.	4dd	16B
.	.	.	16g
.	.	.	16dd
.	.	.	16g
.	.	4.ee	16c
.	.	.	16e
.	.	.	16g
.	.	.	16cc
.	.	.	16ee
.	.	.	16gg
.	.	8dd	16B
.	.	.	16g
=38	=38	=38	=38
1r	1r	4cc	16A
.	.	.	16c
.	.	.	16d
.	.	.	16f#
.	.	4b	16g
.	.	.	16b
.	.	.	16dd
.	.	.	16gg
.	.	4.a	16c
.	.	.	16d
.	.	.	16f#
.	.	.	16a
.	.	.	16cc
.	.	.	16ff#
.	.	16b	16gg
.	.	16cc	16aa
=39	=39	=39	=39
1r	1r	8dd	16b
.	.	.	16gg
.	.	8ee	16cc
.	.	.	16gg
.	.	8cc	16e
.	.	.	16gg
.	.	8a	16c#
.	.	.	16ee
.	.	4g	16d
.	.	.	16g
.	.	.	16b
.	.	.	16dd
.	.	8.a	16d
.	.	.	16cc
.	.	.	16ff#
.	.	16g	16cc
=40	=40	=40	=40
2r	1r	4g	16b
.	.	.	16gg
.	.	.	16dd
.	.	.	16b
.	.	4r	8g
.	.	.	4r
4.G	.	4.B	.
.	.	.	8dd
.	.	.	8b
8A	.	8c	8f#
=41	=41	=41	=41
4B	2r	4d	8g
.	.	.	4gg
4A	.	4c	.
.	.	.	8ff#
4c	[2D	4f#	8r
.	.	.	4ee
4B	.	4g	.
.	.	.	[8dd
=42	=42	=42	=42
8A	4D]	8f#	8dd]
8F#	.	4a	4cc
4G	4G	.	.
.	.	8g	8b
4e	2r	4g	8r
.	.	.	4cc#
4d	.	4f#	.
.	.	.	8dd
=43	=43	=43	=43
4c	2r	4e	8ee
.	.	.	4ff#
4B	.	4d	.
.	.	.	8gg
4A	[2D	4f#	8ddd
.	.	.	4ccc
8B	.	4g	.
8G	.	.	8bb
=44	=44	=44	=44
2d	4D]	4f#	8bb
.	.	.	8aa
.	2.r	4r	16gg
.	.	.	16ff#
.	.	.	16ee
.	.	.	16dd
4.G	.	4.B	8r
.	.	.	8dd
.	.	.	8b
8A	.	8c	8f#
=45	=45	=45	=45
4B	2r	4d	8g
.	.	.	4gg
4A	.	4c	.
.	.	.	8ff#
4c	[2D	4f#	8r
.	.	.	4ee
4B	.	4g	.
.	.	.	[8dd
=46	=46	=46	=46
8A	4D]	8f#	8dd]
8F#	.	4a	4cc
4G	4G	.	.
.	.	8g	8b
4e	2r	4g	8r
.	.	.	4cc#
4d	.	4f#	.
.	.	.	8dd
=47	=47	=47	=47
4c	2r	4e	8ee
.	.	.	4ff#
4B	.	4d	.
.	.	.	8gg
4A	[2D	4f#	8ddd
.	.	.	4ccc
8B	.	4g	.
8G	.	.	[8bb
=48	=48	=48	=48
2d	4D]	4f#	8bb]
.	.	.	8aa
.	4r	4r	16gg
.	.	.	16ff#
.	.	.	16ee
.	.	.	16dd
4A	[2D	4f#	8r
.	.	.	4dd
4B	.	4g	.
.	.	.	8cc#
=49	=49	=49	=49
8A	1D_	[2f#	8dd
8F#	.	.	8ff#
4D	.	.	8aa
.	.	.	8ff#
4c	.	4f#]	8dd
.	.	.	4ee
4B	.	4g	.
.	.	.	[8dd
=50	=50	=50	=50
8A	2D]	2f#	8dd]
8F#	.	.	8cc
4D	.	.	8b
.	.	.	8a
4d	4A 4D	4f# 4A	16g#
.	.	.	16a
.	.	.	16b
.	.	.	16a
4c	4F#	4d 4A	16cc
.	.	.	16b
.	.	.	16ee
.	.	.	16dd
=51	=51	=51	=51
4.B	2G	2d 2G	16cc#
.	.	.	16dd
.	.	.	16ee
.	.	.	16dd
.	.	.	16gg
.	.	.	16ff#
8B	.	.	16aa
.	.	.	16gg
4c#	2E	4.g	4bb
8c#	.	.	16aa
.	.	.	16gg
8d	.	8b	16ff#
.	.	.	16gg
=52	=52	=52	=52
2d	2D	4b	4gg
.	.	4a	4ff#
4.g	2r	4b	16ee
.	.	.	16dd#
.	.	.	16ee
.	.	.	16gg
.	.	4a	8cc#
8f#	.	.	[8dd
=53	=53	=53	=53
4e	1r	4g	8dd]
.	.	.	4cc
4d	.	4f#	.
.	.	.	8b
4.e	.	4.g	16cc
.	.	.	16b
.	.	.	16cc
.	.	.	16ee
.	.	.	8a#
8d	.	8f#	[8b
=54	=54	=54	=54
4c	2r	4e	8b]
.	.	.	4a
4B	.	4d	.
.	.	.	8g
4.A	4.F#	16cc	16ee
.	.	16b	16dd#
.	.	16cc	16ee
.	.	16b	16dd#
.	.	8cc	8ee
16B	16G	16b	16dd
16c	16A	16a	16cc
=55	=55	=55	=55
8d	8B	4g	8b
8e	8c	.	8a
8c	4c 4C	8e	8cc
8A	.	8c	8ee
4G	2D	4B	4g
8.A	.	4c	4f#
16G	.	.	.
=56	=56	=56	=56
8G	4G	4B	4g
16A	.	.	.
16B	.	.	.
16c	2.r	4r	4r
16d	.	.	.
16e	.	.	.
16f#	.	.	.
4.g	.	4b	16ee
.	.	.	16dd#
.	.	.	16ee
.	.	.	16gg
.	.	4a	8cc#
8f#	.	.	[8dd
=57	=57	=57	=57
4e	1r	4g	8dd]
.	.	.	4cc
4d	.	4f#	.
.	.	.	8b
4.e	.	4.g	16cc
.	.	.	16b
.	.	.	16cc
.	.	.	16ee
.	.	.	8a#
8d	.	8f#	[8b
=58	=58	=58	=58
4c	2r	4e	8b]
.	.	.	4a
4B	.	4d	.
.	.	.	8g
4.A	4.F#	16cc	16ee
.	.	16b	16dd#
.	.	16cc	16ee
.	.	16b	16dd#
.	.	8cc	8ee
16B	16G	16b	16dd
16c	16A	16a	16cc
=59	=59	=59	=59
8d	8B	4g	8b
8e	8c	.	8a
8c	4C 4c	8e	8cc
8A	.	8c	8ee
4G	2D	4B	4g
8.A	.	4c	4f#
16G	.	.	.
=60	=60	=60	=60
4G	4G	4B	4g
4GG	4r	2.r	4.r
2r	4.g	.	.
.	.	.	8e
.	.	.	8B
.	8a	.	8c#
=61	=61	=61	=61
1r	4b	1r	8d
.	.	.	4g
.	4a	.	.
.	.	.	8f#
.	4cc	.	8e
.	.	.	4a
.	4b	.	.
.	.	.	8g
=62	=62	=62	=62
1r	8a	8f#	4c
.	8f#	4ee	.
.	4g	.	4B
.	.	4dd	.
.	4ee	.	8g#
.	.	4cc	8a
.	4dd	.	8f#
.	.	[8b	8g
=63	=63	=63	=63
1r	4cc	8b]	8e
.	.	4a	8f#
.	4b	.	8d#
.	.	4g	8e
.	4a	.	8c
.	.	4g	4c#
.	8b	.	.
.	8g	8g	8A
=64	=64	=64	=64
1r	2dd	2f#	2d
.	4.g	8r	2r
.	.	8e	.
.	.	8B	.
.	8a	8c#	.
=65	=65	=65	=65
1r	4b	[1d	8r
.	.	.	4gg
.	4a	.	.
.	.	.	8ff#
.	4cc	.	8r
.	.	.	4aa
.	4b	.	.
.	.	.	8gg
=66	=66	=66	=66
1r	8a	8d]	8ff#
.	8f#	4cc	4eee
.	4g	.	.
.	.	16b	4ddd
.	.	16a	.
.	4ee	8g#	.
.	.	8a	4ccc
.	4dd	8f#	.
.	.	8g	[8bb
=67	=67	=67	=67
1r	4cc	8e	8bb]
.	.	8f#	4aa
.	4b	8d#	.
.	.	8e	8.gg
.	4a	8c	.
.	.	.	16ff#
.	.	4c#	16gg
.	.	.	16ff#
.	8b	.	8gg
.	8g	8A	8cc# 8g
=68	=68	=68	=68
2r	2dd	2d	2dd 2f#
8r	4a	4f#	2r
8d	.	.	.
8B	4b	4g	.
16A	.	.	.
16G	.	.	.
=69	=69	=69	=69
4D	8a	4f#	1r
.	8f#	.	.
16r	4d	4r	.
16D	.	.	.
16F#	.	.	.
16A	.	.	.
8d	4cc	4a	.
8d#	.	.	.
8e	4b	4g	.
8c#	.	.	.
=70	=70	=70	=70
4.d	8a	4f#	1r
.	8f#	.	.
.	4d	4r	.
4c	.	.	.
.	4dd	4d	.
4B	.	.	.
.	4cc	4f#	.
[8A	.	.	.
=71	=71	=71	=71
8A]	4.b	[2g	1r
8D	.	.	.
8G	.	.	.
8F#	8b	.	.
8E	4cc#	8g]	.
8E-	.	8b-	.
8EE-	8cc#	8a	.
8E-	8dd	8g	.
=72	=72	=72	=72
4D	2dd	2f#	2r
4DD	.	.	.
2r	4.gg	4.e	8b
.	.	.	8cc
.	.	.	8cc#
.	8ff#	8d	[8dd
=73	=73	=73	=73
2r	4ee	8g#	8dd]
.	.	8a	4cc
.	4dd	8f#	.
.	.	8g	8b
8A	4.ee	2r	8cc
8G#	.	.	8b
8G	.	.	8b-
8F#	8dd	.	8a
=74	=74	=74	=74
8E	4cc	2r	8g
8e	.	.	8g
8d#	4b	.	8f#
8d	.	.	8f
4c#	4.a	8r	8e
.	.	8e	8g
4c	.	8d	8f#
.	16b	8f#	8a
.	16cc	.	.
=75	=75	=75	=75
8B	8dd	8r	8g
8G#	8ee	4e	8b
8A	8cc	.	8cc
8C	8a	8c	8ee
2D	4g	4B	4g
.	8.a	4c	4f#
.	16g	.	.
=76	=76	=76	=76
4G	8g	4B	4g
.	16a	.	.
.	16b	.	.
2.r	16cc	4r	4r
.	16dd	.	.
.	16ee	.	.
.	16ff#	.	.
.	4.gg	4.e	8b
.	.	.	8cc
.	.	.	8cc#
.	8ff#	8d	[8dd
=77	=77	=77	=77
2r	4ee	8g#	8dd]
.	.	8a	4cc
.	4dd	8f#	.
.	.	8g	8b
8A	4.ee	2r	8cc
8G#	.	.	8b
8G	.	.	8b-
8F#	8dd	.	8a
=78	=78	=78	=78
8E	4cc	2r	8g
8e	.	.	8g
8d#	4b	.	8f#
8d	.	.	8f
4c#	4.a	8r	8e
.	.	8e	8g
4c	.	8d	8f#
.	16b	8f#	8a
.	16cc	.	.
=79	=79	=79	=79
8B	8dd	8r	8g
8G#	8ee	4e	8b
8A	8cc	.	8cc
8C	8a	8c	8ee
2D	4g	4B	4g
.	8.a	4c	4f#
.	16g	.	.
=80	=80	=80	=80
4G	4g	4B	4g
4GG	4r	4r	4r
2E	[2G	4B	4.g
.	.	4c#	.
.	.	.	8a
=81	=81	=81	=81
2D	4G]	2d	4b
.	2F#	.	4a
4D#	.	4a	4cc
4E	4G	4g	4b
=82	=82	=82	=82
4BB	4F#	4d#	8a
.	.	.	8f#
4E	4E	4e	4g
4C	4c	8.g	4ee
.	.	16a	.
4G	4B	4b	4dd
=83	=83	=83	=83
4A	4c	8.e	4cc
.	.	16f#	.
4G	4d	2g	4b
4c	2e	.	4a
4c#	.	4g	8b
.	.	.	8g
=84	=84	=84	=84
4d	4d	2f#	2dd
4D	4r	.	.
2e	[2g	4b	4.gg
.	.	4cc#	.
.	.	.	8aa
=85	=85	=85	=85
2d	4g]	2dd	4bb
.	2f#	.	4aa
4d#	.	4aa	4ccc
4e	4g	4gg	4bb
=86	=86	=86	=86
4B	4f#	4dd#	8aa
.	.	.	8ff#
4e	4e	4ee	4gg
4c	4cc	8.gg	4eee
.	.	16aa	.
4g	4b	4bb	4ddd
=87	=87	=87	=87
4a	4cc	8.ee	4ccc
.	.	16ff#	.
4g	4dd	2gg	4bb
4c	2ee	.	4aa
4c#	.	4gg	8bb
.	.	.	8gg
=88	=88	=88	=88
[1d	4f#	2ff#	2ddd
.	4r	.	.
.	4dd	4ff#	4aa
.	4cc#	4gg	4bb
=89	=89	=89	=89
1d_	4dd	4ff#	8aa
.	.	.	8ff#
.	8cc	4r	4dd
.	8b	.	.
.	4a	8ee	4ccc
.	.	8ff#	.
.	8g	8gg	4bb
.	8cc#	8gg	.
=90	=90	=90	=90
1d_	4.dd	4ff#	8aa
.	.	.	8ff#
.	.	4.r	4dd
.	8cc	.	.
.	8b	.	4ddd
.	8g#	4bb	.
.	8a	.	4ccc
.	8f#	[8aa	.
=91	=91	=91	=91
1d]	8g	8aa]	4.bb
.	8a	8dd	.
.	8b	8gg	.
.	8a	8ff#	8bb
.	8g	8ee	4ccc#
.	8b	8gg	.
.	8a	8ff#	8ccc#
.	8g	8ee	8ddd
=92	=92	=92	=92
4d	4a	2ff#	2ddd
16e	4r	.	.
16f#	.	.	.
16g	.	.	.
16a	.	.	.
8b	8dd	8gg	4.ggg
8a	8cc	8aa	.
8g	8b	8bb	.
8g	8b	[8ddd	8fff#
=93	=93	=93	=93
2g	8cc	8ddd]	4eee
.	8ee	4ccc	.
.	8ff#	.	4ddd
.	4gg	8bb	.
4c	.	8ee	4.eee
.	16g	8ff#	.
.	16a	.	.
4B	8b	8gg	.
.	8e	8gg#	8ddd
=94	=94	=94	=94
4A	8e	4aa	4ccc
.	8f#	.	.
8e	8g	2gg	4bb
8d	8f#	.	.
4c#	4e	.	4.aa
4c	[4d	8ff#	.
.	.	16gg	16bb
.	.	16aa	16ccc
=95	=95	=95	=95
4B	8d]	4gg	8ddd
.	4g	.	8eee
4c	.	8ee	8ccc
.	8ee	8aa	8aa
4d	4b	4gg	4gg
4D	4cc	4ff#	8.aa
.	.	.	16gg
=96	=96	=96	=96
4G	4b	4gg	8gg
.	.	.	16aa
.	.	.	16bb
2.r	4r	4r	16ccc
.	.	.	16ddd
.	.	.	16eee
.	.	.	16fff#
.	4.ee	8bb	4.ggg
.	.	8ccc	.
.	.	8aa#	.
.	[8dd	8bb	8fff#
=97	=97	=97	=97
2r	8dd]	8gg#	4eee
.	4cc	8aa	.
.	.	8ff#	4ddd
.	8b	8gg	.
8A#	8a#	4.gg	4.eee
8B	8b	.	.
8c	8cc	.	.
8G#	8g#	8ff	8ddd
=98	=98	=98	=98
8A	8a	8ee	4ccc
8D#	8d#	8ff#	.
8E	8e	8gg	4bb
8D	8f#	8ff#	.
8C#	8g	4ee	4.aa
8AA	8g	.	.
8C	8f#	[4dd	.
8DD	8a	.	16bb
.	.	.	16ccc
=99	=99	=99	=99
8BB	8g	8dd]	8ddd
8GG#	8b	8b	8eee
8AA	8e	8cc	8ccc
8C	8cc	8ee	8aa
2D	8d	4b	4gg
.	8g	.	.
.	8f#	4cc	8.aa
.	8f#	.	.
.	.	.	16gg
=100	=100	=100	=100
[1G	8g 8G	4.b	2..gg
.	8B	.	.
.	8d	.	.
.	8e	8cc	.
.	8f	8dd	.
.	8e	8cc#	.
.	8f	8dd	.
.	8B	8dd	8ff
=101	=101	=101	=101
1G_	8c	4dd	2ee
.	8d	.	.
.	8e	2cc	.
.	8f#	.	.
.	8g	.	[2dd
.	8f#	.	.
.	8g	8b	.
.	8f	8a	.
=102	=102	=102	=102
2G_	4e	2g	8dd]
.	.	.	4cc
.	4d	.	.
.	.	.	4b
8G]	8c	8f#	.
8G 8GG	8e- 8c	8f#	8a
8G 8GG	8e- 8c	8f#	8a
8G 8GG	8e- 8c	8f#	8a
=103	=103	=103	=103
1G 1GG	1e- 1c	1f#	1a
=104	=104	=104	=104
1G 1GG	1B 1d	1g	1b
==	==	==	==
*-	*-	*-	*-
!!!RWG1: This file contains only pitch and duration data.
!!!RWG2: Transposing instruments are not transposed.
!!!RWG3: Spines may have incompatible meters.
!!!RWG4: Durations of rests and tied notes may be interpreted.
!!!RWG: Key is interpreted using the Humdrum key tool.
!!!GTL: 6 Quartetti ("Erdödy")
!!!OPT: Emperor
!!!AFT: stage1
!!!END: 1997/04/15
!!!KEY: 2051252210
!!!EMD: Converted from MuseData to Humdrum Dec 16, 2000, by Andreas Kornstaedt using muse2kern.
!!!EMD: Manual editing by Craig Sapp, Nov 2001
